assets/sonr-icons/star-fill.svg

<svg xmlns="http://www.w3.org/2000/svg" width="24" height="24" fill="none" viewBox="0 0 24 24"><path fill="#000" d="M10.609 2.93802C11.114 1.68602 12.886 1.68602 13.391 2.93802L15.328 7.74002C15.399 7.91502 15.563 8.03602 15.751 8.05102L20.617 8.44802C21.936 8.55602 22.48 10.195 21.486 11.069L17.794 14.316C17.657 14.436 17.597 14.621 17.636 14.799L18.817 20.166C19.112 21.507 17.601 22.507 16.482 21.71L12.291 18.726C12.118 18.602 11.884 18.602 11.711 18.726L7.51999 21.71C6.40199 22.507 4.88999 21.507 5.18499 20.166L6.36599 14.799C6.40499 14.621 6.34399 14.436 6.20799 14.316L2.51499 11.068C1.52099 10.194 2.06399 8.55402 3.38399 8.44702L8.24999 8.05002C8.43799 8.03402 8.60299 7.91402 8.67299 7.73902L10.611 2.93702L10.609 2.93802Z"/></svg>

<svg xmlns="http://www.w3.org/2000/svg" width="24" height="24" fill="none"><path fill="currentColor" d="M10.609 2.938c.505-1.252 2.277-1.252 2.782 0l1.937 4.802a.5.5 0 0 0 .423.311l4.866.397c1.319.108 1.863 1.747.869 2.621l-3.692 3.247a.5.5 0 0 0-.158.483l1.181 5.367c.295 1.341-1.216 2.341-2.335 1.544l-4.191-2.984a.5.5 0 0 0-.58 0L7.52 21.71c-1.118.797-2.63-.203-2.335-1.544l1.181-5.367a.5.5 0 0 0-.158-.483l-3.693-3.248c-.994-.874-.451-2.514.869-2.621L8.25 8.05a.5.5 0 0 0 .423-.311l1.938-4.802z"/></svg>
